Icons/svg/copy.svg

<svg xmlns="http://www.w3.org/2000/svg" width="298" height="319" viewBox="0 0 298 319"><g fill="#323232"><path d="M220 0h-220v260h45v-230h175zM78 59v260h220v-260h-220zm168 193h-116v-27h116v27zm0-66h-116v-27h116v27z"/></g></svg>

<?xml version="1.0" encoding="utf-8"?>
<!-- Generator: Adobe Illustrator 18.1.1, SVG Export Plug-In . SVG Version: 6.00 Build 0)  -->
<!DOCTYPE svg PUBLIC "-//W3C//DTD SVG 1.1//EN" "http://www.w3.org/Graphics/SVG/1.1/DTD/svg11.dtd">
<svg version="1.1" id="Layer_1" xmlns="http://www.w3.org/2000/svg" xmlns:xlink="http://www.w3.org/1999/xlink" x="0px" y="0px"
	 viewBox="0 0 298 319" enable-background="new 0 0 298 319" xml:space="preserve">
<g>
	<polygon fill="#323232" points="220,0 0,0 0,260 45,260 45,30 220,30 	"/>
	<path fill="#323232" d="M78,59v260h220V59H78z M246,252H130v-27h116V252z M246,186H130v-27h116V186z"/>
</g>
<g>
</g>
<g>
</g>
<g>
</g>
<g>
</g>
<g>
</g>
<g>
</g>
<g>
</g>
<g>
</g>
<g>
</g>
<g>
</g>
<g>
</g>
<g>
</g>
<g>
</g>
<g>
</g>
<g>
</g>
</svg>
